Origami/24x24/apps/anoise.svg

<svg width="24" height="24" version="1.1" viewBox="0 0 24 24" xmlns="http://www.w3.org/2000/svg">
 <circle cx="12" cy="12.5" r="10" style="opacity:.2"/>
 <circle cx="12" cy="12" r="10" style="fill:#ff8a18"/>
 <path d="M 12,2 A 10,10 0 0 0 2,12 10,10 0 0 0 2.01075,12.291 10,10 0 0 1 12,2.5 10,10 0 0 1 21.9895,12.209 10,10 0 0 0 22,12 10,10 0 0 0 12,2 Z" style="fill:#ffffff;opacity:.2"/>
 <circle cx="12" cy="12.5" r="7" style="opacity:.2"/>
 <circle cx="12" cy="12" r="7" style="fill:#ffffff"/>
 <path d="m10.357422 6.2578125l-1.4140626 1.4140625 4.2421876 4.242187-4.2421876 4.242188 1.4140626 1.414062 4.242187-4.242187 1.414063-1.414063-1.414063-1.414062-4.242187-4.2421875z" style="fill:#3f3f3f"/>
</svg>

<svg xmlns="http://www.w3.org/2000/svg" width="24" height="24" version="1.1" viewBox="0 0 24 24">
 <circle style="opacity:0.2" cx="12" cy="12.5" r="10"/>
 <circle style="fill:#ff8a18" cx="12" cy="12" r="10"/>
 <path style="opacity:0.2;fill:#ffffff" d="M 12,2 A 10,10 0 0 0 2,12 10,10 0 0 0 2.01075,12.291 10,10 0 0 1 12,2.5 10,10 0 0 1 21.9895,12.209 10,10 0 0 0 22,12 10,10 0 0 0 12,2 Z"/>
 <circle style="opacity:0.2" cx="12" cy="12.5" r="7"/>
 <circle style="fill:#ffffff" cx="12" cy="12" r="7"/>
 <path style="fill:#3f3f3f" d="M 10.357422 6.2578125 L 8.9433594 7.671875 L 13.185547 11.914062 L 8.9433594 16.15625 L 10.357422 17.570312 L 14.599609 13.328125 L 16.013672 11.914062 L 14.599609 10.5 L 10.357422 6.2578125 z"/>
</svg>
